X:150 
T:Miss McGuinness'* (reel) 
T:Take Your Choice
B:CRE3.178	(gan ainm)
R:reel % A-B-A
F:file ID: cre.3/150miss_mcg
L:1/8
Q:180
M:C
K:G
B|dGG2 BGBd|efga bage|dGG2 BGBd|egdB BAA:|
A|agab g3d|(3efg gd (3efg dg|agab g3d|edgd BAA2|
agab g3d|(3efg gd (3efg dg|b4 a2ag|e2ef gage||

%%%

